z_dist/img/icons/num/num3.svg

<svg width="45" height="51" viewBox="0 0 45 51" fill="none" xmlns="http://www.w3.org/2000/svg">
<g clip-path="url(#clip0_406_606)">
<path d="M9.43213 0V7.69355L34.2721 25.4032L9.43213 43.1129V50.8065L45.0001 25.4032L9.43213 0Z" fill="#E0BEA2"/>
<path d="M0 7.47583V43.2581L25.056 25.4032L0 7.47583Z" fill="#E0BEA2"/>
<path d="M5.46672 29.4678C4.90917 29.4603 4.41481 29.334 3.98364 29.0886C3.55247 28.8433 3.19192 28.5199 2.902 28.1185C2.61208 27.7171 2.39277 27.2859 2.24409 26.825C2.10285 26.3567 2.03223 25.8995 2.03223 25.4534C2.03223 24.9777 2.11028 24.5019 2.2664 24.0261C2.42251 23.5503 2.64925 23.1192 2.9466 22.7326C3.2514 22.3386 3.61566 22.0264 4.0394 21.7959C4.46313 21.558 4.9389 21.4391 5.46672 21.4391C6.03913 21.4391 6.53721 21.5655 6.96094 21.8182C7.39211 22.071 7.75266 22.3981 8.04258 22.7995C8.33251 23.201 8.54809 23.6358 8.68934 24.1042C8.83802 24.5725 8.91235 25.0223 8.91235 25.4534C8.91235 25.9366 8.8343 26.4161 8.67818 26.8919C8.52207 27.3603 8.29162 27.7877 7.98683 28.1743C7.68947 28.5608 7.32892 28.8731 6.90519 29.1109C6.48145 29.3414 6.00196 29.4603 5.46672 29.4678ZM3.58221 25.4534C3.58964 25.7657 3.63053 26.0779 3.70487 26.3901C3.78664 26.6949 3.90187 26.9774 4.05055 27.2376C4.20666 27.4978 4.40366 27.7096 4.64155 27.8732C4.87943 28.0293 5.15449 28.1074 5.46672 28.1074C5.80124 28.1074 6.08745 28.0219 6.32534 27.8509C6.56322 27.6799 6.75651 27.4606 6.90519 27.193C7.0613 26.9254 7.17653 26.6392 7.25087 26.3344C7.3252 26.0296 7.36237 25.7359 7.36237 25.4534C7.36237 25.1412 7.32149 24.8327 7.23971 24.5279C7.16537 24.2157 7.04643 23.9295 6.88288 23.6693C6.72677 23.4091 6.52977 23.201 6.29188 23.0448C6.06143 22.8813 5.78638 22.7995 5.46672 22.7995C5.13962 22.7995 4.85713 22.885 4.61924 23.056C4.38136 23.227 4.18436 23.4463 4.02824 23.7139C3.87957 23.9815 3.76806 24.2677 3.69372 24.5725C3.61938 24.8773 3.58221 25.1709 3.58221 25.4534Z" fill="white"/>
<path d="M12.4157 29.4343C11.9919 29.4343 11.6054 29.3823 11.256 29.2782C10.914 29.1667 10.6129 29.0106 10.3527 28.8099C10.1 28.6017 9.89927 28.3564 9.75059 28.0739L10.5535 27.0592C10.6278 27.2227 10.7467 27.3826 10.9103 27.5387C11.0738 27.6948 11.2783 27.8212 11.5236 27.9178C11.7689 28.0144 12.0477 28.0628 12.3599 28.0628C12.6647 28.0628 12.9286 28.0182 13.1516 27.9289C13.3746 27.8397 13.5456 27.7171 13.6646 27.561C13.7909 27.3974 13.8541 27.2004 13.8541 26.97C13.8541 26.7246 13.7761 26.5165 13.62 26.3455C13.4713 26.1745 13.2483 26.0444 12.9509 25.9552C12.6536 25.866 12.2893 25.8214 11.8581 25.8214H11.4901V24.7063H11.8804C12.4157 24.7063 12.8431 24.6134 13.1628 24.4276C13.4899 24.2417 13.6534 23.9778 13.6534 23.6358C13.6534 23.4277 13.5977 23.2493 13.4862 23.1006C13.3746 22.9445 13.226 22.8293 13.0401 22.7549C12.8543 22.6731 12.6498 22.6323 12.4268 22.6323C12.0551 22.6323 11.7243 22.7215 11.4344 22.8999C11.1519 23.0709 10.9363 23.2939 10.7876 23.5689L9.8175 22.4873C9.98104 22.2494 10.2041 22.0487 10.4866 21.8851C10.769 21.7142 11.085 21.5803 11.4344 21.4837C11.7912 21.3871 12.1592 21.3387 12.5383 21.3387C13.0661 21.3387 13.5345 21.4317 13.9433 21.6175C14.3522 21.7959 14.6719 22.0413 14.9023 22.3535C15.1328 22.6657 15.248 23.0225 15.248 23.424C15.248 23.7213 15.1848 23.9927 15.0584 24.238C14.9395 24.4833 14.7685 24.6877 14.5455 24.8513C14.3225 25.0148 14.0586 25.1338 13.7538 25.2081C14.0809 25.2602 14.3671 25.3828 14.6124 25.5761C14.8652 25.762 15.0584 25.9998 15.1922 26.2898C15.3335 26.5723 15.4041 26.8808 15.4041 27.2153C15.4041 27.6836 15.2703 28.0813 15.0027 28.4084C14.7425 28.7355 14.3857 28.9883 13.9322 29.1667C13.4862 29.3451 12.9806 29.4343 12.4157 29.4343Z" fill="white"/>
</g>
<defs>
<clipPath id="clip0_406_606">
<rect width="45" height="50.8065" fill="white"/>
</clipPath>
</defs>
</svg>

<svg width="45" height="51" fill="none" xmlns="http://www.w3.org/2000/svg"><g clip-path="url(#clip0_406_606)"><path d="M9.432 0v7.694l24.84 17.71-24.84 17.709v7.694L45 25.402 9.432 0z" fill="#E0BEA2"/><path d="M0 7.476v35.782l25.056-17.855L0 7.476z" fill="#E0BEA2"/><path d="M5.467 29.468c-.558-.008-1.052-.134-1.483-.38a3.382 3.382 0 01-1.082-.97 4.62 4.62 0 01-.658-1.293 4.737 4.737 0 01-.212-1.372 4.56 4.56 0 01.914-2.72 3.47 3.47 0 011.093-.937c.424-.238.9-.357 1.428-.357.572 0 1.07.127 1.494.38.431.252.792.58 1.082.98.29.402.505.837.646 1.305.149.469.223.918.223 1.35 0 .483-.078.962-.234 1.438a4.201 4.201 0 01-.691 1.282 3.534 3.534 0 01-1.082.937c-.424.23-.903.35-1.438.357zm-1.885-4.015c.008.313.049.625.123.937.082.305.197.587.346.848.156.26.353.472.59.635.238.156.513.234.826.234.334 0 .62-.085.858-.256.238-.171.432-.39.58-.658.156-.268.272-.554.346-.859a3.557 3.557 0 00-.011-1.806 2.835 2.835 0 00-.357-.859 1.907 1.907 0 00-.591-.624 1.389 1.389 0 00-.825-.246c-.327 0-.61.086-.848.257s-.435.39-.59.658a3.715 3.715 0 00-.446 1.74zm8.834 3.981c-.424 0-.81-.052-1.16-.156a2.974 2.974 0 01-.903-.468 2.387 2.387 0 01-.602-.736l.803-1.015c.074.164.193.324.356.48.164.156.368.282.614.379.245.096.524.145.836.145.305 0 .569-.045.792-.134.223-.09.394-.212.513-.368a.938.938 0 00.19-.591.893.893 0 00-.235-.624c-.149-.172-.372-.302-.67-.39-.296-.09-.66-.135-1.092-.135h-.368v-1.115h.39c.536 0 .963-.093 1.283-.278.327-.186.49-.45.49-.792a.867.867 0 00-.167-.535.985.985 0 00-.446-.346 1.506 1.506 0 00-.613-.123c-.372 0-.703.09-.993.268a1.744 1.744 0 00-.646.669l-.97-1.082a2.02 2.02 0 01.669-.602 3.75 3.75 0 01.947-.401 4.206 4.206 0 011.104-.145c.528 0 .996.093 1.405.279.41.178.729.423.96.736.23.312.345.669.345 1.07 0 .297-.063.569-.19.814-.118.245-.29.45-.512.613a2.206 2.206 0 01-.792.357c.327.052.613.175.858.368.253.186.446.424.58.714.142.282.212.59.212.925 0 .469-.134.866-.401 1.193-.26.327-.617.58-1.07.759a4.056 4.056 0 01-1.517.267z" fill="#fff"/></g><defs><clipPath id="clip0_406_606"><path fill="#fff" d="M0 0h45v50.806H0z"/></clipPath></defs></svg>
